X:1
T:Normandy Orchards
M:3/4
L:1/4
K:C
 G| c c c| c3/2 B/2 c| d e f| e3/2 d/2 c| A G G| A G G| A c c| d3|\
 e f g| g3/2 G/2 G| A c B| A3/2 G/2- G| A G G| A B c| d e3/2 d/2| c3|\
 d d e| f3/2 e/2 d| c c B| c3/2 d/2 e| f e d| c3/2 B/2 c| d A c| B3|\
 c c B| c3/2 d/2 e| d3/2 e/2 f| e3/2 d/2 c| A G G| A G G| A c3/2 B/2|\
 A2 G| e3/2 d/2 c| G c d| e3/2 f/2 g| d3| d d c| B3/2 c/2 d| c c d|\
 e2 G| c c c| c3/2 d/2 e| A d e| f3/2 e/2 d| G c B| A d3/2 c/2| B e3/2 d/2|\
 c3|
